X: 42483
T: Wexford Reedmaker, The
R: reel
M: 4/4
K: Dmajor
DF F/F/F A2 de|fedf edBd|DF F/F/F d2 de|fdef af e2|
fedB AF F/F/F|ABde fe e/e/e|dedB AFdB|AFEG FD D2:|
defa bafa|fedf edBd|defa bafa|fdef af e2|
fedB ABde|faef dBAB|AFdB AF F/F/F|AFEG FD D2:|

